X:1
T:Title
%%score { ( 1 3 ) | 2 }
L:1/8
Q:1/4=90
M:6/8
K:E
V:1 treble nm="Grand Piano"
V:3 treble 
V:2 bass 
V:1
 GFG .E3 | GFG .[GB]3 | [Ac][GB][FA] [EG][DF][CE] | [B,D][CE][DF] .[DF]3 | GFG E[EF][EG] | %5
[M:15/16] [FA][EG]/-[EG]/[FA][Ac]3/2- [Ac]3 |[M:3/4] [Ac][GB] [EG][GB] [FA][DF] | E[EG] [DF] .E3 | %8
 [EGB]2 z .e3 | dc d .[Ge]3 | c2 z .B3 | z2 z e3- | e4 z2 | [GB]2 z [FA] [EG][DF] | E2 z2 z2 |] %15
V:2
 [E,E][E,E][E,E] .E,3 | [E,E][E,E][E,E] .E,3 | E,E,E, E,E,E, | B,,B,,B,, .B,,3 | %4
 [E,E][E,E][E,E] E,E,E, |[M:15/16] A,,A,,/-A,,/A,,A,,3/2- A,,3 |[M:3/4] B,,B,, B,,B,, B,,B,, | %7
 B,,B,, B,, .E,3 | E,2 z[K:treble] .[G,B,G]3 | [B,F][B,E] [B,F][K:bass] .[E,B,]3 | %10
 [A,E]2 z .[G,B,E]3 | [F,B,][F,B,] [F,B,] .[E,B,]3 | [A,C]3 [A,,CA] [A,,B,][C,A,] | %13
 [E,B,]2 z [B,,B,] [B,,B,][B,,A,] | [E,G,]2 z2 z2 |] %15
V:3
 x6 | x6 | x6 | x6 | x6 |[M:15/16] x15/2 |[M:3/4] x6 | x6 | x6 | x6 | x6 | [Ad][Ac] [Ad] .G3 | %12
 A3 e [Ad][Ac] | x6 | x6 |] %15

